X:203
T:Up Wi’t Aily Now. RH.203
R:slip jig
S:Rev.R.Harrison’s MS,c1815,Cumbria
N:Close to being a triple hornpipe.
O:England
A:Temple Sowerby,Cumbria
Z:vmp.Simon Wilson. Review PJH, 2008.
M:9/8
L:1/8
Q:3/8=140
K:D
A2a e2c e2c|A2a e2c e2c|\
A2a e2c e2f|gag B2c dcB:|!
|:A2c cec cec|A2c cBc dcB|\
A2c cec cef|gag B2c dcB:|

